X:14060
T:Red Tom of The Hills
R:Reel
S:
H:
N:
D:Paddy Carty & Conor Tully(Session Tape) 
Z:Adrian Scahill
M:4/4
L:1/8
K:F
DGG2 DEFD|GABc defa|gfdc (3Bcd BG|(3A=Bc AF DEFD|\
G2dG cFAF|GABc defa|gfdc ~B3d|1 cAFA G4:|2 cAFA GABd||\
K:C\
g2bg dgbg|g2bg BABd|f2af cfaf|f2af dc_Bc|\
dgg2 =bggd|BGBd gd_Bd|f3a g3a|fdcA GABd:||


